64x64/apps/frozen-bubble.svg

<svg xmlns="http://www.w3.org/2000/svg" xmlns:xlink="http://www.w3.org/1999/xlink" width="64" height="64" version="1">
 <defs>
  <linearGradient id="linearGradient4648">
   <stop style="stop-color:#7d329a" offset="0"/>
   <stop style="stop-color:#ac5cce" offset="1"/>
  </linearGradient>
  <linearGradient id="linearGradient4652" x1="30.577" x2="45" y1="19.129" y2="27.456" gradientTransform="matrix(1.4117647,0,0,1.3333334,-1.529411,-1e-6)" gradientUnits="userSpaceOnUse" xlink:href="#linearGradient4648"/>
 </defs>
 <path style="opacity:0.2" d="M 23.599914,31.892121 C 20.75433,40.692325 15.316897,50.455259 4,48.818985 4.7483236,41.458449 7.8040168,34.047599 12.12051,28.101003 c 0.909925,-1.253546 2.787434,-1.809294 3.564053,-2.900898 z"/>
 <path style="opacity:0.2" d="M 28.03761,5.0000019 C 21.313632,5.0991259 7.8502454,16.075774 6.181352,29.275677 5.700777,33.076725 6.194072,37.123885 7.4387668,40.904921 8.126652,52.770709 23.707906,60.351245 33.439218,60.994287 45.344494,61.274783 56.463506,51.145785 58.648582,48.427155 62.644782,42.517049 56.988588,29.776913 51.94237,22.357739 46.404568,14.215808 36.08125,8.2873239 28.03761,5.0000019 Z"/>
 <path style="fill:#653578" d="M 23.599914,30.89212 C 20.75433,39.692324 15.316897,49.455258 4,47.818984 4.7483236,40.458448 7.8040168,33.047598 12.12051,27.101002 c 0.909925,-1.253546 2.787434,-1.809294 3.564053,-2.900898 z"/>
 <path style="fill:#7d329a" d="M 28.03761,4 C 21.313632,4.099124 7.8502454,15.075772 6.181352,28.275676 5.700777,32.076724 6.194072,36.123884 7.4387668,39.90492 8.126652,51.770708 23.707906,59.351244 33.439218,59.994286 45.344494,60.274782 56.463506,50.145784 58.648582,47.427154 62.644782,41.517048 56.988588,28.776912 51.94237,21.357738 46.404568,13.215806 36.08125,7.287322 28.03761,4 Z"/>
 <path style="opacity:0.1;fill:#f4f4f7" d="M 28.037109 4 C 21.313131 4.099124 7.850534 15.075487 6.1816406 28.275391 C 6.039071 29.403027 5.9906297 30.553355 6.0136719 31.710938 C 6.0304402 30.891719 6.0802277 30.077503 6.1816406 29.275391 C 7.850534 16.075487 21.313131 5.099124 28.037109 5 C 36.080749 8.287322 46.403604 14.21549 51.941406 22.357422 C 55.66517 27.832264 59.710313 36.198809 59.974609 42.585938 C 60.135109 36.095753 55.863998 27.124591 51.941406 21.357422 C 46.403604 13.21549 36.080749 7.287322 28.037109 4 z"/>
 <ellipse style="fill:#fcf8fd" cx="-18.045" cy="43.13" rx="9.587" ry="12.251" transform="matrix(0.67816244,-0.73491204,0.7242635,0.6895233,0,0)"/>
 <path style="opacity:0.2" d="m 44.74828,21.000001 c 8.874192,2.90367 18.719214,8.452096 17.069182,20 -7.422418,-0.7636 -14.895578,-3.88167 -20.892174,-8.286272 C 39.6612,31.785233 39.100782,29.869395 38,29.076923 Z"/>
 <path style="fill:url(#linearGradient4652)" d="m 44.74828,20 c 8.874192,2.90367 18.719214,8.452096 17.069182,20 C 54.395044,39.2364 46.921884,36.11833 40.925288,31.713728 39.6612,30.785232 39.100782,28.869394 38,28.076922 Z"/>
 <path style="opacity:0.2" d="M 24,31.000273 C 25.389626,37.033895 13.405534,43.256279 7.3930556,40.839895 4.4990866,39.676823 4.0059328,35.248637 4.1278526,31.784213 4.2507486,28.715573 3.9429226,27.781215 7.0149684,27.488377 12.833064,26.949371 23.389374,28.348967 24,31.000273 Z"/>
 <path style="fill:#ffc102" d="m 23.888828,29.626274 c 1.389626,6.033622 -10.594466,12.256006 -16.6069444,9.839622 -2.893969,-1.163072 -3.3871228,-5.591258 -3.265203,-9.055682 0.122896,-3.06864 -0.18493,-4.002998 2.8871158,-4.295836 5.8180956,-0.539006 16.3744056,0.86059 16.9850316,3.511896 z"/>
 <circle style="opacity:0.2" cx="-8" cy="23" r="6" transform="scale(-1,1)"/>
 <circle style="opacity:0.2" cx="-21" cy="22" r="9" transform="scale(-1,1)"/>
 <circle style="fill:#f4f4f7" cx="-8" cy="22" r="6" transform="scale(-1,1)"/>
 <circle style="fill:#f4f4f7" cx="-21" cy="21" r="9" transform="scale(-1,1)"/>
 <circle style="fill:#17191e" cx="-18" cy="22" r="4" transform="scale(-1,1)"/>
 <circle style="fill:#17191e" cx="-7" cy="22" r="3" transform="scale(-1,1)"/>
</svg>

<svg xmlns="http://www.w3.org/2000/svg" xmlns:xlink="http://www.w3.org/1999/xlink" width="64" height="64" version="1"><defs><linearGradient id="a"><stop style="stop-color:#7d329a" offset="0"/><stop style="stop-color:#ac5cce" offset="1"/></linearGradient><linearGradient id="b" x1="30.577" x2="45" y1="19.129" y2="27.456" gradientTransform="matrix(1.41176 0 0 1.33333 -1.53 0)" gradientUnits="userSpaceOnUse" xlink:href="#a"/></defs><path style="opacity:.2" d="M23.6 31.892c-2.846 8.8-8.283 18.563-19.6 16.927.748-7.36 3.804-14.771 8.12-20.718.91-1.254 2.788-1.81 3.565-2.9z"/><path style="opacity:.2" d="M28.038 5C21.314 5.1 7.85 16.076 6.18 29.276c-.48 3.8.013 7.848 1.258 11.629.688 11.866 16.269 19.446 26 20.09 11.905.28 23.025-9.85 25.21-12.568 3.996-5.91-1.66-18.65-6.707-26.07C46.405 14.217 36.082 8.288 28.038 5z"/><path style="fill:#653578" d="M23.6 30.892c-2.846 8.8-8.283 18.563-19.6 16.927.748-7.36 3.804-14.771 8.12-20.718.91-1.254 2.788-1.81 3.565-2.9z"/><path style="fill:#7d329a" d="M28.038 4C21.314 4.1 7.85 15.076 6.18 28.276c-.48 3.8.013 7.848 1.258 11.629.688 11.866 16.269 19.446 26 20.09 11.905.28 23.025-9.85 25.21-12.568 3.996-5.91-1.66-18.65-6.707-26.07C46.405 13.217 36.082 7.288 28.038 4z"/><path style="opacity:.1;fill:#f4f4f7" d="M28.037 4c-6.724.1-20.186 11.075-21.855 24.275a23.663 23.663 0 0 0-.168 3.436c.016-.82.066-1.633.168-2.436C7.85 16.075 21.313 5.1 28.037 5c8.044 3.287 18.367 9.215 23.904 17.357 3.724 5.475 7.77 13.842 8.034 20.229.16-6.49-4.111-15.461-8.034-21.229C46.404 13.215 36.081 7.287 28.037 4z"/><ellipse style="fill:#fcf8fd" cx="-18.045" cy="43.13" rx="9.587" ry="12.251" transform="matrix(.67816 -.73491 .72426 .68952 0 0)"/><path style="opacity:.2" d="M44.748 21c8.874 2.904 18.72 8.452 17.07 20-7.423-.764-14.896-3.882-20.893-8.286-1.264-.929-1.824-2.845-2.925-3.637z"/><path style="fill:url(#b)" d="M44.748 20c8.874 2.904 18.72 8.452 17.07 20-7.423-.764-14.896-3.882-20.893-8.286-1.264-.929-1.824-2.845-2.925-3.637z"/><path style="opacity:.2" d="M24 31c1.39 6.034-10.594 12.256-16.607 9.84-2.894-1.163-3.387-5.591-3.265-9.056.123-3.068-.185-4.003 2.887-4.296C12.833 26.95 23.389 28.35 24 31z"/><path style="fill:#ffc102" d="M23.889 29.626c1.39 6.034-10.595 12.256-16.607 9.84-2.894-1.163-3.387-5.591-3.265-9.056.123-3.068-.185-4.003 2.887-4.296 5.818-.539 16.374.861 16.985 3.512z"/><circle style="opacity:.2" cx="-8" cy="23" r="6" transform="scale(-1 1)"/><circle style="opacity:.2" cx="-21" cy="22" r="9" transform="scale(-1 1)"/><circle style="fill:#f4f4f7" cx="-8" cy="22" r="6" transform="scale(-1 1)"/><circle style="fill:#f4f4f7" cx="-21" cy="21" r="9" transform="scale(-1 1)"/><circle style="fill:#17191e" cx="-18" cy="22" r="4" transform="scale(-1 1)"/><circle style="fill:#17191e" cx="-7" cy="22" r="3" transform="scale(-1 1)"/></svg>
